assets/images/payment-method-icons/affirm.svg

<svg fill="none" height="24" viewBox="0 0 39 24" width="39" xmlns="http://www.w3.org/2000/svg" xmlns:xlink="http://www.w3.org/1999/xlink"><clipPath id="a"><path d="m7.05002 6.37988h25.2v10.0553h-25.2z"/></clipPath><rect fill="#fff" height="23" rx="1.5" width="37" x="1.15002" y=".507812"/><rect height="23" rx="1.5" stroke="#ddd" width="37" x="1.15002" y=".507812"/><g clip-path="url(#a)"><g fill="#101820"><path clip-rule="evenodd" d="m8.7024 15.5686c-.31166 0-.47043-.1535-.47043-.4057 0-.4705.52453-.6286 1.48125-.7304 0 .6269-.42397 1.1361-1.01376 1.1361zm.41162-3.5252c-.68388 0-1.47008.3216-1.89698.6621l.38986.8232c.34223-.3134.89557-.5815 1.39481-.5815.47454 0 .7368.1587.7368.4786 0 .2147-.17347.3234-.50159.3664-1.22663.1587-2.18806.4974-2.18806 1.4424 0 .7491.53334 1.2025 1.36658 1.2025.59509 0 1.12431-.3305 1.37599-.7644v.6468h1.10907v-2.7102c0-1.1173-.7757-1.5683-1.78589-1.5683z" fill-rule="evenodd"/><path clip-rule="evenodd" d="m20.2448 12.166v4.1491h1.1867v-1.9993c0-.9496.5751-1.2289.9755-1.2289.1803-.0014.3569.0507.5075.1499l.217-1.0967c-.1682-.0673-.3482-.0999-.5292-.0958-.6098 0-.9932.2699-1.2461.8191v-.6974z" fill-rule="evenodd"/><path clip-rule="evenodd" d="m28.6307 12.0439c-.6275 0-1.0967.3705-1.3407.728-.2264-.4616-.7057-.728-1.2819-.728-.6269 0-1.0614.3482-1.262.7492v-.6274h-1.1443v4.1491h1.1879v-2.1363c0-.7644.4016-1.1343.7762-1.1343.3392 0 .6509.2193.6509.7856v2.485h1.1855v-2.1363c0-.7756.3916-1.1343.7838-1.1343.314 0 .6468.2281.6468.7774v2.4932h1.1855v-2.8684c0-.932-.6274-1.4025-1.3854-1.4025" fill-rule="evenodd"/><path clip-rule="evenodd" d="m17.357 12.1658h-1.0749v-.4216c0-.5493.3134-.7057.5833-.7057.1843.0024.3655.0477.5292.1323l.3658-.8367s-.3711-.2423-1.0455-.2423c-.758 0-1.6207.4275-1.6207 1.7688v.3052h-1.7964v-.4216c0-.5493.3129-.7057.5833-.7057.1846 0 .3664.0454.5293.1323l.3657-.8367c-.2181-.1276-.5692-.2423-1.0449-.2423-.758 0-1.6206.4275-1.6206 1.7688v.3052h-.6868v.9149h.6886v3.2342h1.1854v-3.2342h1.7988v3.2342h1.1855v-3.2342h1.0749z" fill-rule="evenodd"/><path d="m19.2493 12.166h-1.1843v4.1474h1.1843z"/></g><path clip-rule="evenodd" d="m18.1085 11.4602h1.1601c.6769-2.12803 2.9731-3.99854 5.7039-3.99854 3.3212 0 6.1914 2.52852 6.1914 6.46474.0101.808-.1009 1.6129-.3293 2.388h1.1261l.0112-.0388c.1897-.7673.2833-1.5552.2787-2.3456 0-4.38966-3.1989-7.54914-7.2757-7.54914-3.2024 0-6.0567 2.22275-6.8659 5.08054z" fill="#4a4af4" fill-rule="evenodd"/></g></svg>

<svg
        width="39"
        height="24"
        viewBox="0 0 39 24"
        fill="none"
        xmlns="http://www.w3.org/2000/svg"
>
    <rect
            x="1.15002"
            y="0.507812"
            width="37"
            height="23"
            rx="1.5"
            fill="white"
    />
    <rect
            x="1.15002"
            y="0.507812"
            width="37"
            height="23"
            rx="1.5"
            stroke="#DDDDDD"
    />
    <g clip-path="url(#clip0_2237_211612)">
        <path
                fill-rule="evenodd"
                clip-rule="evenodd"
                d="M8.7024 15.5686C8.39074 15.5686 8.23197 15.4151 8.23197 15.1629C8.23197 14.6924 8.7565 14.5343 9.71322 14.4325C9.71322 15.0594 9.28925 15.5686 8.69946 15.5686H8.7024ZM9.11402 12.0434C8.43014 12.0434 7.64394 12.365 7.21704 12.7055L7.6069 13.5287C7.94913 13.2153 8.50247 12.9472 9.00171 12.9472C9.47625 12.9472 9.73851 13.1059 9.73851 13.4258C9.73851 13.6405 9.56504 13.7492 9.23692 13.7922C8.01029 13.9509 7.04886 14.2896 7.04886 15.2346C7.04886 15.9837 7.5822 16.4371 8.41544 16.4371C9.01053 16.4371 9.53975 16.1066 9.79143 15.6727V16.3195H10.9005V13.6093C10.9005 12.492 10.1248 12.041 9.11461 12.041L9.11402 12.0434Z"
                fill="#101820"
        />
        <path
                fill-rule="evenodd"
                clip-rule="evenodd"
                d="M20.2448 12.166V16.3151H21.4315V14.3158C21.4315 13.3662 22.0066 13.0869 22.407 13.0869C22.5873 13.0855 22.7639 13.1376 22.9145 13.2368L23.1315 12.1401C22.9633 12.0728 22.7833 12.0402 22.6023 12.0443C21.9925 12.0443 21.6091 12.3142 21.3562 12.8634V12.166H20.2448Z"
                fill="#101820"
        />
        <path
                fill-rule="evenodd"
                clip-rule="evenodd"
                d="M28.6307 12.0439C28.0032 12.0439 27.534 12.4144 27.29 12.7719C27.0636 12.3103 26.5843 12.0439 26.0081 12.0439C25.3812 12.0439 24.9467 12.3921 24.7461 12.7931V12.1657H23.6018V16.3148H24.7897V14.1785C24.7897 13.4141 25.1913 13.0442 25.5659 13.0442C25.9051 13.0442 26.2168 13.2635 26.2168 13.8298V16.3148H27.4023V14.1785C27.4023 13.4029 27.7939 13.0442 28.1861 13.0442C28.5001 13.0442 28.8329 13.2723 28.8329 13.8216V16.3148H30.0184V13.4464C30.0184 12.5144 29.391 12.0439 28.633 12.0439"
                fill="#101820"
        />
        <path
                fill-rule="evenodd"
                clip-rule="evenodd"
                d="M17.357 12.1658H16.2821V11.7442C16.2821 11.1949 16.5955 11.0385 16.8654 11.0385C17.0497 11.0409 17.2309 11.0862 17.3946 11.1708L17.7604 10.3341C17.7604 10.3341 17.3893 10.0918 16.7149 10.0918C15.9569 10.0918 15.0942 10.5193 15.0942 11.8606V12.1658H13.2978V11.7442C13.2978 11.1949 13.6107 11.0385 13.8811 11.0385C14.0657 11.0385 14.2475 11.0839 14.4104 11.1708L14.7761 10.3341C14.558 10.2065 14.2069 10.0918 13.7312 10.0918C12.9732 10.0918 12.1106 10.5193 12.1106 11.8606V12.1658H11.4238V13.0807H12.1124V16.3149H13.2978V13.0807H15.0966V16.3149H16.2821V13.0807H17.357V12.1658Z"
                fill="#101820"
        />
        <path
                d="M19.2493 12.166H18.065V16.3134H19.2493V12.166Z"
                fill="#101820"
        />
        <path
                fill-rule="evenodd"
                clip-rule="evenodd"
                d="M18.1085 11.4602H19.2686C19.9455 9.33217 22.2417 7.46166 24.9725 7.46166C28.2937 7.46166 31.1639 9.99018 31.1639 13.9264C31.174 14.7344 31.063 15.5393 30.8346 16.3144H31.9607L31.9719 16.2756C32.1616 15.5083 32.2552 14.7204 32.2506 13.93C32.2506 9.54034 29.0517 6.38086 24.9749 6.38086C21.7725 6.38086 18.9182 8.60361 18.109 11.4614L18.1085 11.4602Z"
                fill="#4A4AF4"
        />
    </g>
    <defs>
        <clipPath id="clip0_2237_211612">
            <rect
                    width="25.2"
                    height="10.0553"
                    fill="white"
                    transform="translate(7.05002 6.37988)"
            />
        </clipPath>
    </defs>
</svg>
